assets/images/footer-icon4.svg

<svg width="22" height="18" viewBox="0 0 22 18" fill="none" xmlns="http://www.w3.org/2000/svg">
<g id="icon">
<path id="icon_2" fill-rule="evenodd" clip-rule="evenodd" d="M18.7828 1.20311C19.1314 1.12346 19.3744 1.04515 19.5735 0.962892C19.8525 0.847613 20.0838 0.709522 20.4492 0.476949C20.7564 0.281493 21.15 0.264472 21.474 0.432634C21.798 0.600796 22.0001 0.926971 22.0001 1.28181C22.0001 2.32421 21.8654 3.17855 21.5535 3.93043C21.2912 4.56286 20.9226 5.07653 20.4817 5.54405C20.2955 8.78728 19.322 11.3342 17.8337 13.2638C16.2911 15.2638 14.2387 16.5445 12.0751 17.2617C9.91796 17.9768 7.6387 18.1366 5.59678 17.8945C3.56824 17.654 1.69312 17.0063 0.386128 16.026C0.0282049 15.7575 -0.0976105 15.2904 0.0795872 14.8879C0.256785 14.4854 0.692641 14.2483 1.14152 14.3101C2.42749 14.4873 3.66538 14.2054 4.68327 13.8022C4.48289 13.6971 4.29396 13.5833 4.11836 13.4661C3.19083 12.8468 2.44248 12.0063 2.10564 11.3566C1.96626 11.0878 1.96482 10.7716 2.10175 10.5016C2.17239 10.3624 2.27569 10.2436 2.40111 10.1531C1.04685 9.07526 0.500069 7.58447 0.500069 6.58572C0.500069 6.28876 0.641945 6.00836 0.884667 5.82561C0.986724 5.74877 1.10182 5.6928 1.22316 5.65908C1.12182 5.37292 1.04318 5.0838 0.983235 4.8039C0.717471 3.56292 0.741057 2.16224 1.02992 1.04793C1.12878 0.666613 1.45772 0.381306 1.86136 0.326788C2.26501 0.27227 2.66257 0.45945 2.86625 0.799907C3.94376 2.601 5.93123 3.70191 7.78094 4.35405C8.65058 4.66065 9.45601 4.85603 10.0597 4.97615C10.19 3.79908 10.5308 2.82837 11.0539 2.05739C11.7439 1.04021 12.7064 0.438384 13.7401 0.170035C15.5228 -0.292753 17.5009 0.234499 18.7828 1.20311ZM9.7485 6.88331C9.0634 6.75064 8.12179 6.52777 7.0942 6.16548C5.73698 5.68697 4.16096 4.94085 2.8408 3.78511C2.86442 3.99779 2.89797 4.20866 2.9419 4.41382C3.16315 5.44696 3.57427 6.02556 3.94728 6.20541C4.40349 6.42539 4.61492 6.94122 4.43795 7.40254C4.19835 8.02712 3.56817 8.0784 2.99558 7.94034C3.45611 8.60618 4.28385 9.27004 5.66447 9.49194C6.14065 9.56847 6.49216 9.96214 6.49994 10.4276C6.50772 10.8931 6.16956 11.2975 5.69618 11.3888L4.82572 11.5567C4.95888 11.6683 5.10308 11.7777 5.25678 11.8803C5.95369 12.3456 6.65344 12.5463 7.25753 12.4006C7.70998 12.2916 8.18055 12.4986 8.3917 12.8996C8.60286 13.3006 8.49853 13.7891 8.14025 14.077C7.49633 14.5939 6.74433 15.0086 5.99065 15.3529C5.63683 15.5145 5.24142 15.674 4.81197 15.8144C5.14226 15.8823 5.48594 15.9381 5.84086 15.9802C7.61143 16.1901 9.58217 16.0486 11.425 15.4378C13.2614 14.829 14.959 13.7592 16.2289 12.1127C17.4971 10.4685 18.3821 8.19313 18.5008 5.10357C18.5101 4.86032 18.6145 4.62948 18.793 4.45736C19.2426 4.02374 19.6142 3.52673 19.797 2.93513C19.4771 3.0313 19.1169 3.11454 18.6878 3.19364C18.3624 3.25364 18.0273 3.15429 17.793 2.92834C17.0284 2.19108 15.5165 1.70624 14.26 2.03242C13.6687 2.18594 13.1312 2.51827 12.7275 3.1133C12.3154 3.72082 12.0001 4.66724 12.0001 6.10359C12.0001 6.37647 11.8802 6.63658 11.6701 6.81943C11.1721 7.25293 10.334 6.99669 9.7485 6.88331Z" fill="#0F0F0F"/>
</g>
</svg>

<svg width="22" height="18" fill="none" xmlns="http://www.w3.org/2000/svg"><path fill-rule="evenodd" clip-rule="evenodd" d="M18.783 1.203a4.88 4.88 0 0 0 .79-.24c.28-.115.51-.253.876-.486a1.029 1.029 0 0 1 1.025-.044.96.96 0 0 1 .526.849c0 1.042-.135 1.897-.447 2.648a5.235 5.235 0 0 1-1.071 1.614c-.186 3.243-1.16 5.79-2.648 7.72-1.543 2-3.595 3.28-5.759 3.998-2.157.715-4.436.875-6.478.633-2.029-.241-3.904-.889-5.21-1.869a.943.943 0 0 1-.307-1.138c.177-.403.613-.64 1.062-.578 1.285.177 2.523-.105 3.541-.508a6.381 6.381 0 0 1-.565-.336c-.927-.62-1.676-1.46-2.012-2.11a.934.934 0 0 1-.004-.854.974.974 0 0 1 .3-.349C1.046 9.075.5 7.584.5 6.586a.95.95 0 0 1 .385-.76c.102-.077.217-.133.338-.167a6.896 6.896 0 0 1-.24-.855C.717 3.563.741 2.162 1.03 1.048a.988.988 0 0 1 .83-.721A1.01 1.01 0 0 1 2.865.8c1.079 1.8 3.066 2.902 4.916 3.554.87.307 1.675.502 2.279.622.13-1.177.47-2.148.994-2.919A4.58 4.58 0 0 1 13.74.17c1.783-.463 3.76.064 5.043 1.033Zm-9.035 5.68a18.866 18.866 0 0 1-2.654-.718c-1.357-.478-2.933-1.224-4.253-2.38.023.213.057.424.1.629.222 1.033.633 1.612 1.006 1.791a.95.95 0 0 1 .49 1.198c-.239.624-.869.675-1.441.537.46.666 1.288 1.33 2.668 1.552.477.076.828.47.836.936a.973.973 0 0 1-.804.96l-.87.169c.133.111.277.22.43.323.698.466 1.397.666 2.002.52.452-.108.923.099 1.134.5a.941.941 0 0 1-.252 1.177c-.644.517-1.396.932-2.15 1.276-.353.162-.749.321-1.178.461.33.068.674.124 1.029.166 1.77.21 3.741.069 5.584-.542 1.836-.609 3.534-1.679 4.804-3.325 1.268-1.644 2.153-3.92 2.272-7.01a.948.948 0 0 1 .292-.646c.45-.433.821-.93 1.004-1.522-.32.096-.68.18-1.11.259-.325.06-.66-.04-.894-.266-.765-.737-2.276-1.222-3.533-.896a2.584 2.584 0 0 0-1.533 1.081c-.412.608-.727 1.554-.727 2.99a.95.95 0 0 1-.33.716c-.498.434-1.336.178-1.921.064Z" fill="#0F0F0F"/></svg>
